icon-svg/yeelight-beside-lamp.svg

<svg xmlns="http://www.w3.org/2000/svg" fill="#44739e" viewBox="0 0 24 24"><path d="M13.122 16.415a25.15 25.15 0 0 1-4.722-.237l-.27-.039v5.1l.12.067a4.08 4.08 0 0 0 1.168.441A12.6 12.6 0 0 0 11.9 22c.149 0 .3 0 .447-.008a14.8 14.8 0 0 0 2.1-.159 4.27 4.27 0 0 0 1.3-.386l.134-.063v-5.248l-.272.041a21.5 21.5 0 0 1-2.487.238m2.278 4.667a3.82 3.82 0 0 1-1.029.283 14.15 14.15 0 0 1-2.04.154 11.92 11.92 0 0 1-2.827-.231 3.57 3.57 0 0 1-.912-.325v-4.279a25.77 25.77 0 0 0 4.545.2 22.6 22.6 0 0 0 2.263-.2zm-3.552-2.599c-.294-.118-.591-.229-.887-.343v.836c.222.084.437.172.66.247v-.283c-.126-.049-.254-.1-.383-.144 0-.091-.011-.179-.011-.274q.318.117.632.242v.547h.269v-.547q.313-.124.632-.242c0 .092-.01.18-.01.274-.129.049-.257.093-.383.144v.283c.222-.076.438-.164.651-.251v-.836c-.326.127-.65.256-.975.378-.063.029-.133-.014-.195-.031M15.865 2.62c-.005-.067-.006-.112-.08-.131a14.33 14.33 0 0 0-3.275-.483 15.02 15.02 0 0 0-4.235.422c-.05.018-.114.025-.126.087a2.14 2.14 0 0 0-.013.358v12.8a24.2 24.2 0 0 0 2.88.265 26.64 26.64 0 0 0 4.847-.26c.001-4.345-.002-8.718.002-13.058"/></svg>

<?xml version="1.0" encoding="UTF-8"?>
<svg width="24px" fill="#44739e" height="24px" viewBox="0 0 24 24" version="1.1" xmlns="http://www.w3.org/2000/svg" xmlns:xlink="http://www.w3.org/1999/xlink">
            <path d="m 13.122,16.415 v 0 A 25.152,25.152 0 0 1 8.4,16.178 L 8.13,16.139 v 5.1 l 0.12,0.067 A 4.078,4.078 0 0 0 9.418,21.747 12.6,12.6 0 0 0 11.9,22 c 0.149,0 0.3,0 0.447,-0.008 a 14.8,14.8 0 0 0 2.1,-0.159 4.266,4.266 0 0 0 1.3,-0.386 l 0.134,-0.063 v -5.248 l -0.272,0.041 a 21.451,21.451 0 0 1 -2.487,0.238 z m 2.278,4.667 a 3.816,3.816 0 0 1 -1.029,0.283 14.153,14.153 0 0 1 -2.04,0.154 11.919,11.919 0 0 1 -2.827,-0.231 3.57,3.57 0 0 1 -0.912,-0.325 v -4.279 a 25.769,25.769 0 0 0 4.545,0.2 22.589,22.589 0 0 0 2.263,-0.2 z M 11.848,18.483 C 11.554,18.365 11.257,18.254 10.961,18.14 v 0.836 c 0.222,0.084 0.437,0.172 0.66,0.247 V 18.94 c -0.126,-0.049 -0.254,-0.1 -0.383,-0.144 0,-0.091 -0.011,-0.179 -0.011,-0.274 q 0.318,0.117 0.632,0.242 v 0.547 h 0.269 v -0.547 q 0.313,-0.124 0.632,-0.242 c 0,0.092 -0.01,0.18 -0.01,0.274 -0.129,0.049 -0.257,0.093 -0.383,0.144 v 0.283 0 c 0.222,-0.076 0.438,-0.164 0.651,-0.251 v -0.836 c -0.326,0.127 -0.65,0.256 -0.975,0.378 C 11.98,18.543 11.91,18.5 11.848,18.483 Z M 15.865,2.62 C 15.86,2.553 15.859,2.508 15.785,2.489 A 14.326,14.326 0 0 0 12.51,2.006 15.018,15.018 0 0 0 8.275,2.428 C 8.225,2.446 8.161,2.453 8.149,2.515 A 2.144,2.144 0 0 0 8.136,2.873 v 12.8 a 24.176,24.176 0 0 0 2.88,0.265 26.639,26.639 0 0 0 4.847,-0.26 C 15.864,11.333 15.861,6.96 15.865,2.62 Z"/>

</svg>
